;FLAVOR:Marlin
;TIME:790
;Filament used: 0.594528m
;Layer height: 0.2
;MINX:84
;MINY:84
;MINZ:0.2
;MAXX:136
;MAXY:136
;MAXZ:2
;TARGET_MACHINE.NAME:Creality Ender-3 S1 Pro
;Generated with Cura_SteamEngine 5.7.0
M82 ;absolute extrusion mode
; Ender 3 S1 Pro Start G-code
; M413 S0 ; Disable power loss recovery
G92 E0 ; Reset Extruder

; Prep surfaces before auto home for better accuracy
M140 S60
M104 S200

G28 ; Home all axes
M420 S1 z10
G1 Z10.0 F3000 ; Move Z Axis up little to prevent scratching of Heat Bed
G1 X0 Y0

M190 S60
M109 S200

G1 X0.1 Y20 Z0.3 F5000.0 ; Move to start position
G1 X0.1 Y200.0 Z0.3 F1500.0 E15 ; Draw the first line
G1 X0.4 Y200.0 Z0.3 F5000.0 ; Move to side a little
G1 X0.4 Y20 Z0.3 F1500.0 E30 ; Draw the second line
G92 E0 ; Reset Extruder
G1 Z2.0 F3000 ; Move Z Axis up little to prevent scratching of Heat Bed
G1 X5 Y20 Z0.3 F5000.0 ; Move over to prevent blob squish
G92 E0
G92 E0
G1 F2400 E-0.8
;LAYER_COUNT:10
;LAYER:0
M107
M204 S2000
G0 F7500 X87.456 Y87.013 Z0.2
M204 S500
;TYPE:SKIRT
G1 F2400 E0
G1 F1500 X88.192 Y86.376 E0.03237
G1 X88.924 Y85.846 E0.06243
G1 X89.821 Y85.311 E0.09717
G1 X90.699 Y84.89 E0.12956
G1 X91.612 Y84.548 E0.16198
G1 X92.549 Y84.289 E0.19432
G1 X93.516 Y84.111 E0.22702
G1 X94.655 Y84.015 E0.26504
G1 X95.312 Y84 E0.2869
G1 X104.181 Y84 E0.58188
G1 X105.365 Y84.019 E0.62126
G1 X106.195 Y84.054 E0.64889
G1 X108.783 Y84.128 E0.73501
G1 X111.271 Y84.128 E0.81776
G1 X113.867 Y84.054 E0.90414
G1 X115.027 Y84.008 E0.94275
G1 X115.455 Y84 E0.95699
G1 X121.95 Y84.001 E1.17301
G1 X122.686 Y84.013 E1.19749
G1 X123.658 Y84.072 E1.22988
G1 X124.621 Y84.218 E1.26228
G1 X125.569 Y84.449 E1.29473
G1 X126.425 Y84.737 E1.32477
G1 X127.381 Y85.156 E1.35949
G1 X128.234 Y85.627 E1.3919
G1 X129.041 Y86.172 E1.42428
G1 X129.796 Y86.785 E1.45663
G1 X130.495 Y87.463 E1.48902
G1 X131.133 Y88.201 E1.52147
G1 X131.681 Y88.962 E1.55266
G1 X132.176 Y89.791 E1.58477
G1 X132.447 Y90.328 E1.60478
G1 X133.585 Y92.748 E1.69372
G1 X134.827 Y95.211 E1.78547
G1 X135.224 Y96.102 E1.81791
G1 X135.54 Y97.022 E1.85026
G1 X135.774 Y97.968 E1.88268
G1 X135.923 Y98.926 E1.91492
G1 X135.985 Y99.798 E1.944
G1 X136 Y100.455 E1.96586
G1 X135.999 Y104.335 E2.09491
G1 X135.971 Y106.327 E2.16117
G1 X135.971 Y108.943 E2.24817
G1 X135.998 Y110.192 E2.28973
G1 X135.999 Y114.335 E2.42752
G1 X135.971 Y116.327 E2.49378
G1 X135.971 Y118.943 E2.58079
G1 X135.998 Y120.192 E2.62234
G1 X135.999 Y124.4 E2.7623
G1 X135.988 Y125.163 E2.78768
G1 X135.931 Y126.136 E2.8201
G1 X135.786 Y127.099 E2.85249
G1 X135.557 Y128.045 E2.88486
G1 X135.246 Y128.969 E2.91729
G1 X134.854 Y129.86 E2.94967
G1 X134.386 Y130.712 E2.982
G1 X133.864 Y131.493 E3.01324
G1 X133.231 Y132.278 E3.04678
G1 X132.606 Y132.929 E3.0768
G1 X131.817 Y133.617 E3.11162
G1 X131.057 Y134.167 E3.14282
G1 X130.19 Y134.684 E3.17639
G1 X129.312 Y135.106 E3.20879
G1 X128.401 Y135.448 E3.24116
G1 X127.462 Y135.709 E3.27357
G1 X126.496 Y135.887 E3.30624
G1 X125.345 Y135.985 E3.34466
G1 X124.67 Y136 E3.36712
G1 X115.678 Y135.999 E3.6662
G1 X114.636 Y135.981 E3.70086
G1 X113.806 Y135.946 E3.72849
G1 X111.217 Y135.872 E3.81463
G1 X108.729 Y135.872 E3.89738
G1 X106.135 Y135.946 E3.9837
G1 X104.973 Y135.992 E4.02238
G1 X104.545 Y136 E4.03661
G1 X98.049 Y135.999 E4.25267
G1 X97.331 Y135.988 E4.27655
G1 X96.343 Y135.928 E4.30948
G1 X95.379 Y135.782 E4.3419
G1 X94.432 Y135.551 E4.37433
G1 X93.576 Y135.263 E4.40436
G1 X92.62 Y134.844 E4.43908
G1 X91.767 Y134.373 E4.47149
G1 X90.96 Y133.828 E4.50388
G1 X90.205 Y133.215 E4.53622
G1 X89.504 Y132.537 E4.56866
G1 X88.868 Y131.799 E4.60106
G1 X88.301 Y131.009 E4.63341
G1 X87.824 Y130.209 E4.66439
G1 X87.555 Y129.675 E4.68427
G1 X86.408 Y127.24 E4.7738
G1 X85.176 Y124.801 E4.86468
G1 X84.779 Y123.913 E4.89703
G1 X84.462 Y122.991 E4.92946
G1 X84.228 Y122.046 E4.96184
G1 X84.078 Y121.087 E4.99412
G1 X84.015 Y120.202 E5.02363
G1 X84 Y119.545 E5.04549
G1 X84.001 Y115.665 E5.17454
G1 X84.029 Y113.673 E5.2408
G1 X84.029 Y111.057 E5.32781
G1 X84.002 Y109.808 E5.36936
G1 X84.001 Y105.665 E5.50716
G1 X84.029 Y103.673 E5.57342
G1 X84.029 Y101.057 E5.66043
G1 X84.002 Y99.808 E5.70198
G1 X84.001 Y95.525 E5.84443
G1 X84.012 Y94.825 E5.86772
G1 X84.07 Y93.852 E5.90014
G1 X84.216 Y92.889 E5.93253
G1 X84.446 Y91.943 E5.96491
G1 X84.759 Y91.02 E5.99733
G1 X85.151 Y90.13 E6.02967
G1 X85.621 Y89.277 E6.06207
G1 X86.164 Y88.469 E6.09445
G1 X86.731 Y87.765 E6.12451
G1 X87.456 Y87.013 E6.15925
M204 S2000
G0 F7500 X87.718 Y87.315
M204 S500
G1 F1500 X88.427 Y86.7 E6.19047
G1 X89.159 Y86.17 E6.22053
G1 X89.995 Y85.671 E6.25291
G1 X90.84 Y85.264 E6.28411
G1 X91.719 Y84.933 E6.31535
G1 X92.622 Y84.682 E6.34652
G1 X93.55 Y84.51 E6.37791
G1 X94.689 Y84.414 E6.41593
G1 X95.321 Y84.4 E6.43695
G1 X104.175 Y84.4 E6.73144
G1 X105.348 Y84.419 E6.77046
G1 X106.178 Y84.454 E6.79809
G1 X108.772 Y84.528 E6.8844
G1 X111.282 Y84.528 E6.96788
G1 X113.883 Y84.454 E7.05443
G1 X115.035 Y84.408 E7.09277
G1 X115.455 Y84.4 E7.10674
G1 X121.944 Y84.401 E7.32257
G1 X122.662 Y84.412 E7.34645
G1 X123.599 Y84.468 E7.37767
G1 X124.527 Y84.607 E7.40888
G1 X125.441 Y84.828 E7.44016
G1 X126.297 Y85.116 E7.4702
G1 X127.188 Y85.506 E7.50255
G1 X128.011 Y85.959 E7.53379
G1 X128.789 Y86.483 E7.56499
G1 X129.518 Y87.073 E7.59618
G1 X130.193 Y87.725 E7.6274
G1 X130.808 Y88.435 E7.65864
G1 X131.356 Y89.196 E7.68983
G1 X131.819 Y89.971 E7.71986
G1 X132.085 Y90.498 E7.73949
G1 X133.228 Y92.928 E7.82881
G1 X134.462 Y95.375 E7.91996
G1 X134.846 Y96.232 E7.95119
G1 X135.152 Y97.119 E7.9824
G1 X135.379 Y98.03 E8.01363
G1 X135.524 Y98.955 E8.04477
G1 X135.585 Y99.807 E8.07318
G1 X135.6 Y100.455 E8.09474
G1 X135.599 Y104.329 E8.22359
G1 X135.571 Y106.321 E8.28985
G1 X135.571 Y108.943 E8.37706
G1 X135.598 Y110.192 E8.41861
G1 X135.599 Y114.329 E8.5562
G1 X135.571 Y116.321 E8.62247
G1 X135.571 Y118.943 E8.70967
G1 X135.598 Y120.192 E8.75123
G1 X135.599 Y124.395 E8.89102
G1 X135.589 Y125.14 E8.9158
G1 X135.535 Y126.077 E8.94701
G1 X135.397 Y127.006 E8.97825
G1 X135.178 Y127.918 E9.00945
G1 X134.88 Y128.808 E9.04066
G1 X134.503 Y129.668 E9.0719
G1 X134.053 Y130.49 E9.10306
G1 X133.531 Y131.271 E9.13431
G1 X132.942 Y132.001 E9.16551
G1 X132.317 Y132.652 E9.19552
G1 X131.582 Y133.293 E9.22796
G1 X130.822 Y133.843 E9.25916
G1 X130.016 Y134.324 E9.29038
G1 X129.171 Y134.732 E9.32159
G1 X128.293 Y135.063 E9.3528
G1 X127.389 Y135.316 E9.38402
G1 X126.462 Y135.488 E9.41538
G1 X125.311 Y135.586 E9.4538
G1 X124.67 Y135.6 E9.47512
G1 X115.685 Y135.599 E9.77397
G1 X114.653 Y135.581 E9.8083
G1 X113.823 Y135.546 E9.83593
G1 X111.228 Y135.472 E9.92227
G1 X108.718 Y135.472 E10.00576
G1 X106.119 Y135.546 E10.09223
G1 X104.965 Y135.592 E10.13065
G1 X104.545 Y135.6 E10.14462
G1 X98.055 Y135.599 E10.36048
G1 X97.355 Y135.589 E10.38376
G1 X96.402 Y135.532 E10.41551
G1 X95.473 Y135.393 E10.44676
G1 X94.56 Y135.172 E10.478
G1 X93.704 Y134.884 E10.50804
G1 X92.813 Y134.494 E10.54039
G1 X91.99 Y134.041 E10.57163
G1 X91.212 Y133.517 E10.60283
G1 X90.483 Y132.927 E10.63403
G1 X89.807 Y132.275 E10.66526
G1 X89.193 Y131.565 E10.69648
G1 X88.645 Y130.804 E10.72767
G1 X88.168 Y130.004 E10.75865
G1 X87.917 Y129.505 E10.77723
G1 X86.77 Y127.07 E10.86675
G1 X85.541 Y124.637 E10.95741
G1 X85.157 Y123.782 E10.98859
G1 X84.85 Y122.894 E11.01984
G1 X84.623 Y121.984 E11.05103
G1 X84.477 Y121.058 E11.08221
G1 X84.415 Y120.193 E11.11106
G1 X84.4 Y119.545 E11.13261
G1 X84.401 Y115.671 E11.26146
G1 X84.429 Y113.679 E11.32772
G1 X84.429 Y111.057 E11.41493
G1 X84.402 Y109.808 E11.45648
G1 X84.401 Y105.671 E11.59408
G1 X84.429 Y103.679 E11.66034
G1 X84.429 Y101.057 E11.74755
G1 X84.402 Y99.808 E11.7891
G1 X84.401 Y95.531 E11.93136
G1 X84.411 Y94.848 E11.95407
G1 X84.466 Y93.911 E11.98529
G1 X84.605 Y92.983 E12.0165
G1 X84.825 Y92.071 E12.04771
G1 X85.125 Y91.181 E12.07894
G1 X85.502 Y90.322 E12.11015
G1 X85.953 Y89.5 E12.14133
G1 X86.476 Y88.72 E12.17256
G1 X87.043 Y88.016 E12.20263
G1 X87.718 Y87.315 E12.235
M204 S2000
G0 F7500 X87.981 Y87.617
M204 S500
G1 F1500 X88.662 Y87.024 E12.26503
G1 X89.394 Y86.494 E12.29509
G1 X90.169 Y86.031 E12.32512
G1 X90.982 Y85.638 E12.35515
G1 X91.827 Y85.318 E12.3852
G1 X92.696 Y85.075 E12.41521
G1 X93.584 Y84.909 E12.44526
G1 X94.723 Y84.813 E12.48328
G1 X95.33 Y84.8 E12.50347
G1 X104.168 Y84.8 E12.79742
G1 X105.331 Y84.819 E12.83611
G1 X106.161 Y84.854 E12.86374
G1 X108.761 Y84.928 E12.95025
G1 X111.293 Y84.928 E13.03447
G1 X113.899 Y84.854 E13.12118
G1 X115.043 Y84.808 E13.15926
G1 X115.455 Y84.8 E13.17296
G1 X121.938 Y84.801 E13.38859
G1 X122.639 Y84.811 E13.41191
G1 X123.541 Y84.864 E13.44196
G1 X124.434 Y84.996 E13.47198
G1 X125.313 Y85.207 E13.50205
G1 X126.169 Y85.495 E13.53209
G1 X126.996 Y85.857 E13.56212
G1 X127.788 Y86.291 E13.59215
G1 X128.538 Y86.794 E13.62219
G1 X129.241 Y87.361 E13.65223
G1 X129.891 Y87.987 E13.68224
G1 X130.484 Y88.669 E13.7123
G1 X131.013 Y89.401 E13.74234
G1 X131.476 Y90.176 E13.77237
G1 X131.723 Y90.668 E13.79068
G1 X132.871 Y93.108 E13.88037
G1 X134.097 Y95.539 E13.97092
G1 X134.468 Y96.363 E14.00098
G1 X134.764 Y97.216 E14.03101
G1 X134.984 Y98.092 E14.06105
G1 X135.125 Y98.984 E14.09109
G1 X135.185 Y99.816 E14.11883
G1 X135.2 Y100.455 E14.14009
G1 X135.199 Y104.323 E14.26874
G1 X135.171 Y106.315 E14.335
G1 X135.171 Y108.943 E14.42241
G1 X135.198 Y110.192 E14.46396
G1 X135.199 Y114.323 E14.60136
G1 X135.171 Y116.315 E14.66762
G1 X135.171 Y118.943 E14.75502
G1 X135.198 Y120.192 E14.79658
G1 X135.199 Y124.39 E14.9362
G1 X135.19 Y125.117 E14.96038
G1 X135.139 Y126.019 E14.99043
G1 X135.008 Y126.913 E15.02048
G1 X134.799 Y127.791 E15.0505
G1 X134.513 Y128.648 E15.08055
G1 X134.152 Y129.476 E15.1106
G1 X133.72 Y130.268 E15.1406
G1 X133.219 Y131.02 E15.17066
G1 X132.653 Y131.724 E15.2007
G1 X132.028 Y132.375 E15.23072
G1 X131.347 Y132.969 E15.26077
G1 X130.616 Y133.5 E15.29082
G1 X129.842 Y133.964 E15.32084
G1 X129.029 Y134.358 E15.35089
G1 X128.185 Y134.678 E15.38091
G1 X127.315 Y134.923 E15.41097
G1 X126.428 Y135.089 E15.44098
G1 X125.277 Y135.187 E15.4794
G1 X124.67 Y135.2 E15.4996
G1 X115.692 Y135.199 E15.79821
G1 X114.67 Y135.181 E15.8322
G1 X113.84 Y135.146 E15.85983
G1 X111.239 Y135.072 E15.94638
G1 X108.707 Y135.072 E16.03059
G1 X106.103 Y135.146 E16.11724
G1 X104.957 Y135.192 E16.15538
G1 X104.545 Y135.2 E16.16909
G1 X98.061 Y135.199 E16.38475
G1 X97.361 Y135.189 E16.40803
G1 X96.46 Y135.136 E16.43805
G1 X95.566 Y135.004 E16.46811
G1 X94.688 Y134.793 E16.49814
G1 X93.832 Y134.505 E16.52818
G1 X93.005 Y134.143 E16.55821
G1 X92.213 Y133.709 E16.58825
G1 X91.463 Y133.206 E16.61828
G1 X90.76 Y132.639 E16.64832
G1 X90.109 Y132.013 E16.67836
G1 X89.517 Y131.331 E16.7084
G1 X88.988 Y130.599 E16.73844
G1 X88.525 Y129.824 E16.76846
G1 X88.279 Y129.335 E16.78667
G1 X87.132 Y126.9 E16.87619
G1 X85.906 Y124.473 E16.96663
G1 X85.535 Y123.65 E16.99665
G1 X85.238 Y122.797 E17.0267
G1 X85.018 Y121.921 E17.05674
G1 X84.876 Y121.029 E17.08678
G1 X84.815 Y120.184 E17.11496
G1 X84.8 Y119.545 E17.13622
G1 X84.801 Y115.677 E17.26487
G1 X84.829 Y113.685 E17.33113
G1 X84.829 Y111.057 E17.41853
G1 X84.802 Y109.808 E17.46009
G1 X84.801 Y105.677 E17.59748
G1 X84.829 Y103.685 E17.66374
G1 X84.829 Y101.057 E17.75115
G1 X84.802 Y99.808 E17.7927
G1 X84.801 Y95.536 E17.93479
G1 X84.81 Y94.871 E17.95691
G1 X84.862 Y93.969 E17.98696
G1 X84.994 Y93.076 E18.01699
G1 X85.204 Y92.198 E18.04701
G1 X85.491 Y91.341 E18.07707
G1 X85.853 Y90.514 E18.1071
G1 X86.286 Y89.722 E18.13712
G1 X86.788 Y88.971 E18.16716
G1 X87.355 Y88.267 E18.19723
G1 X87.981 Y87.617 E18.22724
M204 S2000
G1 F2400 E17.42724
;MESH:Side Walls Cube.stl
G0 F7500 X95.414 Y94.335
G0 X95.414 Y95.414
G0 X96.172 Y98.7
G0 X97.832 Y98.75
G0 X98.502 Y105.712
G0 X96.172 Y106.296
G0 X96.172 Y108.7
G0 X98.658 Y109.787
G0 X97.886 Y116.22
G0 X96.172 Y116.296
G0 X96.172 Y118.7
G0 X98.624 Y119.579
G0 X98.672 Y123.828
G0 X103.7 Y123.828
G0 X104.77 Y121.343
G0 X115.553 Y122.072
G0 X116.124 Y124
M204 S500
;TYPE:WALL-INNER
G1 F2400 E18.22724
G1 F1500 X124 Y124 E18.4892
G1 X124 Y121.124 E18.58486
G1 X122.5 Y121.124 E18.63475
G1 X122.199 Y121.078 E18.64487
G1 X121.937 Y120.952 E18.65454
G1 X121.739 Y120.773 E18.66342
G1 X121.607 Y120.576 E18.67131
G1 X121.5 Y120.209 E18.68402
G1 X121.503 Y114.784 E18.86446
G1 X121.577 Y114.485 E18.8747
G1 X121.693 Y114.28 E18.88254
G1 X121.936 Y114.045 E18.89378
G1 X122.177 Y113.925 E18.90274
G1 X122.413 Y113.875 E18.91076
G1 X124 Y113.872 E18.96354
G1 X124 Y111.124 E19.05494
G1 X122.413 Y111.121 E19.10773
G1 X122.177 Y111.071 E19.11575
G1 X121.936 Y110.951 E19.1247
G1 X121.693 Y110.716 E19.13595
G1 X121.577 Y110.511 E19.14378
G1 X121.502 Y110.199 E19.15446
G1 X121.503 Y104.784 E19.33456
G1 X121.547 Y104.568 E19.34189
G1 X121.685 Y104.291 E19.35218
G1 X121.925 Y104.053 E19.36343
G1 X122.168 Y103.928 E19.37251
G1 X122.413 Y103.875 E19.38085
G1 X124 Y103.872 E19.43364
G1 X124 Y101.124 E19.52503
G1 X122.413 Y101.121 E19.57782
G1 X122.168 Y101.068 E19.58616
G1 X121.925 Y100.943 E19.59524
G1 X121.775 Y100.813 E19.60185
G1 X121.543 Y100.477 E19.61543
G1 X121.5 Y100.124 E19.62725
G1 X121.5 Y96 E19.76442
G1 X116.124 Y96 E19.94323
G1 X116.124 Y97.5 E19.99312
G1 X116.064 Y97.843 E20.0047
G1 X115.9 Y98.132 E20.01575
G1 X115.717 Y98.307 E20.02417
G1 X115.428 Y98.453 E20.03494
G1 X115.212 Y98.497 E20.04227
G1 X104.789 Y98.5 E20.38894
G1 X104.479 Y98.42 E20.39959
G1 X104.189 Y98.232 E20.41109
G1 X104.059 Y98.084 E20.41764
G1 X103.937 Y97.856 E20.42624
G1 X103.872 Y97.5 E20.43827
G1 X103.872 Y96 E20.48817
G1 X96 Y96 E20.74999
G1 X96 Y98.872 E20.84551
G1 X97.5 Y98.872 E20.8954
G1 X97.801 Y98.918 E20.90553
G1 X98.063 Y99.045 E20.91521
G1 X98.262 Y99.223 E20.92409
G1 X98.393 Y99.421 E20.93199
G1 X98.501 Y99.785 E20.94462
G1 X98.497 Y105.212 E21.12512
G1 X98.423 Y105.511 E21.13537
G1 X98.307 Y105.716 E21.1432
G1 X98.064 Y105.951 E21.15444
G1 X97.823 Y106.071 E21.1634
G1 X97.5 Y106.124 E21.17428
G1 X96 Y106.124 E21.22418
G1 X96 Y108.872 E21.31557
G1 X97.5 Y108.872 E21.36546
G1 X97.823 Y108.925 E21.37635
G1 X98.064 Y109.045 E21.38531
G1 X98.307 Y109.28 E21.39655
G1 X98.423 Y109.485 E21.40438
G1 X98.498 Y109.797 E21.41506
G1 X98.497 Y115.212 E21.59516
G1 X98.453 Y115.428 E21.60249
G1 X98.315 Y115.705 E21.61278
G1 X98.075 Y115.943 E21.62403
G1 X97.832 Y116.068 E21.63311
G1 X97.5 Y116.124 E21.64431
G1 X96 Y116.124 E21.6942
G1 X96 Y118.872 E21.7856
G1 X97.5 Y118.872 E21.83549
G1 X97.832 Y118.928 E21.84669
G1 X98.075 Y119.053 E21.85578
G1 X98.226 Y119.183 E21.86241
G1 X98.457 Y119.52 E21.876
G1 X98.5 Y119.872 E21.88779
G1 X98.5 Y124 E22.02509
G1 X103.872 Y124 E22.20376
G1 X103.872 Y122.5 E22.25365
G1 X103.932 Y122.157 E22.26523
G1 X104.097 Y121.867 E22.27633
G1 X104.281 Y121.693 E22.28475
G1 X104.569 Y121.547 E22.29549
G1 X104.785 Y121.503 E22.30282
G1 X115.206 Y121.5 E22.64943
G1 X115.516 Y121.579 E22.66007
G1 X115.883 Y121.818 E22.67464
G1 X116.059 Y122.144 E22.68696
G1 X116.124 Y122.5 E22.69899
G1 X116.124 Y124 E22.74888
M204 S2000
G0 F7500 X115.724 Y124.4
M204 S500
G1 F1500 X124.4 Y124.4 E23.03745
G1 X124.4 Y120.724 E23.15971
G1 X122.375 Y120.724 E23.22707
G1 X122.162 Y120.621 E23.23493
G1 X121.964 Y120.395 E23.24493
G1 X121.904 Y120.2 E23.25171
G1 X121.902 Y114.819 E23.43069
G1 X121.96 Y114.608 E23.43796
G1 X122.07 Y114.452 E23.44431
G1 X122.306 Y114.304 E23.45358
G1 X122.447 Y114.274 E23.45837
G1 X124.4 Y114.272 E23.52333
G1 X124.4 Y110.724 E23.64134
G1 X122.447 Y110.722 E23.70629
G1 X122.306 Y110.692 E23.71109
G1 X122.07 Y110.544 E23.72035
G1 X121.96 Y110.388 E23.7267
G1 X121.901 Y110.169 E23.73425
G1 X121.902 Y104.819 E23.91219
G1 X121.978 Y104.574 E23.92072
G1 X122.155 Y104.38 E23.92945
G1 X122.447 Y104.274 E23.93979
G1 X124.4 Y104.272 E24.00474
G1 X124.4 Y100.724 E24.12275
G1 X122.447 Y100.722 E24.18771
G1 X122.155 Y100.616 E24.19804
G1 X121.978 Y100.422 E24.20677
G1 X121.905 Y100.205 E24.21439
G1 X121.9 Y95.6 E24.36755
G1 X115.724 Y95.6 E24.57297
G1 X115.724 Y97.5 E24.63616
G1 X115.688 Y97.706 E24.64312
G1 X115.59 Y97.879 E24.64973
G1 X115.382 Y98.042 E24.65852
G1 X115.214 Y98.098 E24.66441
G1 X104.8 Y98.096 E25.01078
