;FLAVOR:Marlin
;TIME:690
;Filament used: 0.556958m
;Layer height: 0.2
;MINX:84
;MINY:84
;MINZ:0.2
;MAXX:136
;MAXY:136
;MAXZ:2
;TARGET_MACHINE.NAME:Creality Ender-3 S1 Pro
;Generated with Cura_SteamEngine 5.7.0
M82 ;absolute extrusion mode
; Ender 3 S1 Pro Start G-code
; M413 S0 ; Disable power loss recovery
G92 E0 ; Reset Extruder

; Prep surfaces before auto home for better accuracy
M140 S60
M104 S200

G28 ; Home all axes
M420 S1 z10
G1 Z10.0 F3000 ; Move Z Axis up little to prevent scratching of Heat Bed
G1 X0 Y0

M190 S60
M109 S200

G1 X0.1 Y20 Z0.3 F5000.0 ; Move to start position
G1 X0.1 Y200.0 Z0.3 F1500.0 E15 ; Draw the first line
G1 X0.4 Y200.0 Z0.3 F5000.0 ; Move to side a little
G1 X0.4 Y20 Z0.3 F1500.0 E30 ; Draw the second line
G92 E0 ; Reset Extruder
G1 Z2.0 F3000 ; Move Z Axis up little to prevent scratching of Heat Bed
G1 X5 Y20 Z0.3 F5000.0 ; Move over to prevent blob squish
G92 E0
G92 E0
G1 F2400 E-0.8
;LAYER_COUNT:10
;LAYER:0
M107
M204 S2000
G0 F7500 X90.052 Y89.421 Z0.2
M204 S500
;TYPE:SKIRT
G1 F2400 E0
G1 F1500 X90.797 Y88.792 E0.03243
G1 X91.594 Y88.233 E0.06481
G1 X92.436 Y87.747 E0.09714
G1 X93.288 Y87.35 E0.12841
G1 X94.298 Y86.985 E0.16413
G1 X97.171 Y86.109 E0.26402
G1 X99.53 Y85.311 E0.34685
G1 X100.566 Y84.93 E0.38357
G1 X101.445 Y84.621 E0.41456
G1 X102.377 Y84.342 E0.44691
G1 X103.261 Y84.157 E0.47695
G1 X104.228 Y84.042 E0.50934
G1 X104.755 Y84.013 E0.5269
G1 X105.362 Y84 E0.54709
G1 X114.254 Y84 E0.84284
G1 X115.139 Y84.013 E0.87228
G1 X116.11 Y84.072 E0.90463
G1 X117.074 Y84.218 E0.93706
G1 X117.983 Y84.438 E0.96817
G1 X118.755 Y84.69 E0.99518
G1 X119.247 Y84.872 E1.01263
G1 X121.659 Y85.722 E1.09768
G1 X124.11 Y86.509 E1.1833
G1 X125.686 Y86.982 E1.23803
G1 X126.539 Y87.279 E1.26807
G1 X127.491 Y87.71 E1.30283
G1 X128.338 Y88.19 E1.33521
G1 X129.112 Y88.722 E1.36645
G1 X129.889 Y89.366 E1.40002
G1 X130.579 Y90.052 E1.43238
G1 X131.208 Y90.797 E1.46481
G1 X131.767 Y91.594 E1.49719
G1 X132.253 Y92.436 E1.52952
G1 X132.65 Y93.288 E1.56078
G1 X133.015 Y94.298 E1.5965
G1 X133.891 Y97.171 E1.6964
G1 X134.683 Y99.514 E1.77866
G1 X135.37 Y101.411 E1.84577
G1 X135.634 Y102.275 E1.87582
G1 X135.848 Y103.298 E1.91058
G1 X135.957 Y104.22 E1.94146
G1 X135.985 Y104.723 E1.95821
G1 X136 Y105.38 E1.98007
G1 X135.999 Y114.377 E2.27931
G1 X135.987 Y115.136 E2.30456
G1 X135.929 Y116.108 E2.33694
G1 X135.783 Y117.072 E2.36937
G1 X135.554 Y118.013 E2.40158
G1 X135.307 Y118.763 E2.42785
G1 X135.144 Y119.203 E2.44345
G1 X134.27 Y121.682 E2.53088
G1 X133.495 Y124.096 E2.61521
G1 X133.017 Y125.689 E2.67052
G1 X132.72 Y126.541 E2.70053
G1 X132.288 Y127.494 E2.73534
G1 X131.807 Y128.34 E2.7677
G1 X131.253 Y129.142 E2.80012
G1 X130.631 Y129.89 E2.83248
G1 X129.945 Y130.581 E2.86486
G1 X129.2 Y131.209 E2.89727
G1 X128.404 Y131.768 E2.92962
G1 X127.591 Y132.239 E2.96087
G1 X126.707 Y132.651 E2.99331
G1 X125.705 Y133.013 E3.02875
G1 X122.833 Y133.89 E3.12863
G1 X120.474 Y134.687 E3.21144
G1 X119.587 Y135.015 E3.2429
G1 X118.551 Y135.38 E3.27943
G1 X117.62 Y135.659 E3.31176
G1 X116.736 Y135.843 E3.34179
G1 X115.244 Y135.987 E3.39164
G1 X114.62 Y136 E3.4124
G1 X105.571 Y135.999 E3.71337
G1 X104.823 Y135.985 E3.73826
G1 X103.853 Y135.922 E3.77059
G1 X102.89 Y135.775 E3.80299
G1 X101.949 Y135.544 E3.83521
G1 X101.221 Y135.302 E3.86073
G1 X100.753 Y135.128 E3.87734
G1 X98.341 Y134.278 E3.9624
G1 X95.89 Y133.491 E4.04802
G1 X94.314 Y133.018 E4.10274
G1 X93.461 Y132.721 E4.13279
G1 X92.509 Y132.29 E4.16754
G1 X91.662 Y131.81 E4.19992
G1 X90.888 Y131.278 E4.23116
G1 X90.111 Y130.634 E4.26473
G1 X89.421 Y129.948 E4.29709
G1 X88.792 Y129.203 E4.32952
G1 X88.233 Y128.406 E4.3619
G1 X87.747 Y127.564 E4.39423
G1 X87.35 Y126.712 E4.42549
G1 X86.985 Y125.701 E4.46124
G1 X86.115 Y122.848 E4.56045
G1 X85.307 Y120.459 E4.64433
G1 X84.984 Y119.583 E4.67538
G1 X84.624 Y118.565 E4.7113
G1 X84.343 Y117.633 E4.74367
G1 X84.159 Y116.749 E4.77371
G1 X84.036 Y115.727 E4.80794
G1 X84.013 Y115.244 E4.82403
G1 X84 Y114.62 E4.84478
G1 X84.001 Y105.585 E5.14529
G1 X84.014 Y104.844 E5.16994
G1 X84.075 Y103.872 E5.20233
G1 X84.222 Y102.908 E5.23477
G1 X84.443 Y102 E5.26585
G1 X84.686 Y101.257 E5.29185
G1 X85.73 Y98.317 E5.39561
G1 X86.509 Y95.89 E5.48039
G1 X86.982 Y94.314 E5.53512
G1 X87.279 Y93.461 E5.56516
G1 X87.71 Y92.509 E5.59992
G1 X88.19 Y91.662 E5.6323
G1 X88.722 Y90.888 E5.66354
G1 X89.366 Y90.111 E5.6971
G1 X90.052 Y89.421 E5.72947
M204 S2000
G0 F7500 X90.311 Y89.726
M204 S500
G1 F1500 X91.027 Y89.119 E5.76069
G1 X91.795 Y88.579 E5.79191
G1 X92.606 Y88.109 E5.82309
G1 X93.424 Y87.726 E5.85313
G1 X94.415 Y87.368 E5.88818
G1 X97.288 Y86.492 E5.98808
G1 X99.658 Y85.69 E6.07129
G1 X100.699 Y85.307 E6.10819
G1 X101.56 Y85.004 E6.13854
G1 X102.459 Y84.734 E6.16976
G1 X103.343 Y84.549 E6.1998
G1 X104.275 Y84.439 E6.23102
G1 X104.764 Y84.413 E6.2473
G1 X105.371 Y84.4 E6.2675
G1 X114.248 Y84.4 E6.56275
G1 X115.115 Y84.412 E6.59159
G1 X116.051 Y84.468 E6.62277
G1 X116.98 Y84.607 E6.65402
G1 X117.889 Y84.827 E6.68512
G1 X118.616 Y85.065 E6.71057
G1 X119.108 Y85.247 E6.72801
G1 X121.537 Y86.103 E6.81367
G1 X123.988 Y86.89 E6.89929
G1 X125.554 Y87.36 E6.95367
G1 X126.407 Y87.657 E6.98371
G1 X127.294 Y88.058 E7.01609
G1 X128.111 Y88.52 E7.04731
G1 X128.885 Y89.052 E7.07855
G1 X129.607 Y89.65 E7.10973
G1 X130.274 Y90.311 E7.14096
G1 X130.881 Y91.027 E7.17218
G1 X131.421 Y91.795 E7.20341
G1 X131.891 Y92.606 E7.23458
G1 X132.274 Y93.424 E7.26462
G1 X132.632 Y94.415 E7.29967
G1 X133.508 Y97.288 E7.39957
G1 X134.307 Y99.65 E7.4825
G1 X134.987 Y101.528 E7.54893
G1 X135.251 Y102.392 E7.57898
G1 X135.451 Y103.345 E7.61137
G1 X135.558 Y104.242 E7.64142
G1 X135.585 Y104.732 E7.65774
G1 X135.6 Y105.38 E7.6793
G1 X135.599 Y114.371 E7.97834
G1 X135.588 Y115.113 E8.00302
G1 X135.533 Y116.049 E8.0342
G1 X135.394 Y116.978 E8.06545
G1 X135.174 Y117.888 E8.09659
G1 X134.932 Y118.624 E8.12235
G1 X134.769 Y119.064 E8.13796
G1 X133.893 Y121.549 E8.2256
G1 X133.114 Y123.974 E8.31031
G1 X132.639 Y125.557 E8.36528
G1 X132.342 Y126.409 E8.39529
G1 X131.94 Y127.297 E8.42771
G1 X131.478 Y128.113 E8.4589
G1 X130.945 Y128.887 E8.49016
G1 X130.347 Y129.609 E8.52134
G1 X129.687 Y130.276 E8.55255
G1 X128.97 Y130.882 E8.58377
G1 X128.203 Y131.422 E8.61497
G1 X127.422 Y131.876 E8.64502
G1 X126.538 Y132.288 E8.67746
G1 X125.588 Y132.63 E8.71104
G1 X122.716 Y133.507 E8.81092
G1 X120.346 Y134.308 E8.89412
G1 X119.454 Y134.638 E8.92576
G1 X118.436 Y134.997 E8.96166
G1 X117.538 Y135.267 E8.99285
G1 X116.654 Y135.451 E9.02288
G1 X115.236 Y135.587 E9.07026
G1 X114.62 Y135.6 E9.09075
G1 X105.578 Y135.599 E9.39149
G1 X104.848 Y135.586 E9.41577
G1 X103.913 Y135.527 E9.44693
G1 X102.985 Y135.386 E9.47815
G1 X102.075 Y135.164 E9.50931
G1 X101.36 Y134.927 E9.53436
G1 X100.892 Y134.753 E9.55097
G1 X98.463 Y133.897 E9.63663
G1 X96.012 Y133.11 E9.72225
G1 X94.446 Y132.64 E9.77663
G1 X93.593 Y132.343 E9.80667
G1 X92.706 Y131.942 E9.83905
G1 X91.889 Y131.48 E9.87026
G1 X91.115 Y130.948 E9.9015
G1 X90.393 Y130.35 E9.93268
G1 X89.726 Y129.689 E9.96391
G1 X89.119 Y128.973 E9.99513
G1 X88.579 Y128.205 E10.02636
G1 X88.109 Y127.394 E10.05754
G1 X87.726 Y126.576 E10.08758
G1 X87.368 Y125.584 E10.12266
G1 X86.498 Y122.731 E10.22186
G1 X85.686 Y120.331 E10.30613
G1 X85.361 Y119.45 E10.33736
G1 X85.007 Y118.449 E10.37268
G1 X84.735 Y117.551 E10.40388
G1 X84.551 Y116.667 E10.43392
G1 X84.436 Y115.708 E10.46604
G1 X84.413 Y115.236 E10.48176
G1 X84.4 Y114.62 E10.50225
G1 X84.401 Y105.592 E10.80252
G1 X84.413 Y104.868 E10.82661
G1 X84.47 Y103.932 E10.8578
G1 X84.611 Y103.003 E10.88905
G1 X84.832 Y102.095 E10.92013
G1 X85.063 Y101.391 E10.94477
G1 X86.107 Y98.451 E11.04854
G1 X86.89 Y96.012 E11.13374
G1 X87.36 Y94.446 E11.18812
G1 X87.657 Y93.593 E11.21816
G1 X88.058 Y92.706 E11.25054
G1 X88.52 Y91.889 E11.28176
G1 X89.052 Y91.115 E11.31299
G1 X89.65 Y90.393 E11.34418
G1 X90.311 Y89.726 E11.37541
M204 S2000
G0 F7500 X90.57 Y90.031
M204 S500
G1 F1500 X91.258 Y89.446 E11.40544
G1 X91.996 Y88.925 E11.43549
G1 X92.776 Y88.471 E11.46551
G1 X93.594 Y88.088 E11.49555
G1 X94.532 Y87.751 E11.5287
G1 X97.405 Y86.875 E11.6286
G1 X99.786 Y86.069 E11.71221
G1 X100.832 Y85.684 E11.74928
G1 X101.676 Y85.387 E11.77904
G1 X102.541 Y85.126 E11.80909
G1 X103.425 Y84.941 E11.83913
G1 X104.322 Y84.836 E11.86917
G1 X104.773 Y84.813 E11.88419
G1 X105.38 Y84.8 E11.90438
G1 X114.243 Y84.8 E12.19916
G1 X115.092 Y84.811 E12.2274
G1 X115.993 Y84.864 E12.25742
G1 X116.887 Y84.996 E12.28748
G1 X117.765 Y85.207 E12.31751
G1 X118.477 Y85.44 E12.34243
G1 X118.969 Y85.622 E12.35988
G1 X121.415 Y86.484 E12.44614
G1 X123.866 Y87.271 E12.53176
G1 X125.422 Y87.738 E12.58579
G1 X126.275 Y88.035 E12.61583
G1 X127.098 Y88.407 E12.64587
G1 X127.885 Y88.85 E12.67591
G1 X128.63 Y89.361 E12.70596
G1 X129.326 Y89.935 E12.73596
G1 X129.969 Y90.57 E12.76602
G1 X130.554 Y91.258 E12.79606
G1 X131.075 Y91.996 E12.8261
G1 X131.529 Y92.776 E12.85612
G1 X131.912 Y93.594 E12.88616
G1 X132.249 Y94.532 E12.91931
G1 X133.125 Y97.405 E13.01921
G1 X133.931 Y99.786 E13.10282
G1 X134.604 Y101.645 E13.16858
G1 X134.868 Y102.509 E13.19862
G1 X135.054 Y103.392 E13.22864
G1 X135.161 Y104.289 E13.25868
G1 X135.185 Y104.741 E13.27374
G1 X135.2 Y105.38 E13.295
G1 X135.199 Y114.365 E13.59384
G1 X135.189 Y115.09 E13.61796
G1 X135.137 Y115.991 E13.64797
G1 X135.005 Y116.885 E13.67803
G1 X134.794 Y117.763 E13.70806
G1 X134.557 Y118.485 E13.73334
G1 X134.394 Y118.925 E13.74894
G1 X133.516 Y121.416 E13.83679
G1 X132.733 Y123.852 E13.9219
G1 X132.261 Y125.425 E13.97652
G1 X131.964 Y126.277 E14.00653
G1 X131.592 Y127.1 E14.03657
G1 X131.148 Y127.887 E14.06662
G1 X130.637 Y128.632 E14.09667
G1 X130.062 Y129.328 E14.1267
G1 X129.428 Y129.971 E14.15673
G1 X128.739 Y130.555 E14.18677
G1 X128.002 Y131.076 E14.21679
G1 X127.221 Y131.53 E14.24684
G1 X126.403 Y131.912 E14.27686
G1 X125.471 Y132.247 E14.3098
G1 X122.599 Y133.124 E14.40968
G1 X120.218 Y133.929 E14.49328
G1 X119.321 Y134.261 E14.52509
G1 X118.32 Y134.614 E14.56039
G1 X117.456 Y134.875 E14.59041
G1 X116.572 Y135.059 E14.62044
G1 X115.227 Y135.187 E14.66538
G1 X114.62 Y135.2 E14.68557
G1 X105.585 Y135.199 E14.98608
G1 X104.873 Y135.187 E15.00976
G1 X103.972 Y135.131 E15.03979
G1 X103.079 Y134.997 E15.06982
G1 X102.201 Y134.784 E15.09987
G1 X101.499 Y134.552 E15.12446
G1 X101.031 Y134.378 E15.14107
G1 X98.585 Y133.516 E15.22733
G1 X96.134 Y132.729 E15.31295
G1 X94.578 Y132.262 E15.36698
G1 X93.725 Y131.965 E15.39702
G1 X92.902 Y131.593 E15.42706
G1 X92.115 Y131.15 E15.4571
G1 X91.37 Y130.639 E15.48715
G1 X90.674 Y130.065 E15.51715
G1 X90.031 Y129.43 E15.54721
G1 X89.446 Y128.742 E15.57725
G1 X88.925 Y128.004 E15.60729
G1 X88.471 Y127.224 E15.63731
G1 X88.088 Y126.406 E15.66735
G1 X87.751 Y125.467 E15.70053
G1 X86.881 Y122.614 E15.79974
G1 X86.065 Y120.203 E15.8844
G1 X85.738 Y119.317 E15.91581
G1 X85.39 Y118.333 E15.95052
G1 X85.127 Y117.469 E15.98056
G1 X84.943 Y116.585 E16.01059
G1 X84.836 Y115.688 E16.04064
G1 X84.813 Y115.227 E16.05599
G1 X84.8 Y114.62 E16.07619
G1 X84.801 Y105.598 E16.37626
G1 X84.812 Y104.892 E16.39974
G1 X84.866 Y103.991 E16.42976
G1 X85 Y103.097 E16.45983
G1 X85.212 Y102.22 E16.48984
G1 X85.44 Y101.525 E16.51417
G1 X86.484 Y98.585 E16.61794
G1 X87.271 Y96.134 E16.70356
G1 X87.738 Y94.578 E16.75759
G1 X88.035 Y93.725 E16.78763
G1 X88.407 Y92.902 E16.81767
G1 X88.85 Y92.115 E16.84771
G1 X89.361 Y91.37 E16.87776
G1 X89.935 Y90.674 E16.90776
G1 X90.57 Y90.031 E16.93782
M204 S2000
G1 F2400 E16.13782
;MESH:Top-Bottom Cube v3.stl
G0 F7500 X97.914 Y96.835
G0 X97.914 Y97.914
G0 X98.191 Y105.982
G0 X96.172 Y106.22
G0 X96.172 Y113.776
G0 X98.659 Y114.878
G0 X98.672 Y121.328
G0 X106.164 Y122.18
G0 X106.22 Y123.828
G0 X113.948 Y124
M204 S500
;TYPE:WALL-INNER
G1 F2400 E16.93782
G1 F1500 X113.948 Y122.5 E16.98771
G1 X113.986 Y122.224 E16.99697
G1 X114.199 Y121.836 E17.0117
G1 X114.425 Y121.647 E17.0215
G1 X114.622 Y121.554 E17.02874
G1 X114.886 Y121.501 E17.0377
G1 X121.5 Y121.5 E17.25768
G1 X121.501 Y114.886 E17.47766
G1 X121.537 Y114.676 E17.48475
G1 X121.7 Y114.347 E17.49696
G1 X121.906 Y114.143 E17.5066
G1 X122.224 Y113.986 E17.5184
G1 X122.5 Y113.948 E17.52767
G1 X124 Y113.948 E17.57756
G1 X124 Y106.048 E17.84031
G1 X122.5 Y106.048 E17.8902
G1 X122.224 Y106.01 E17.89947
G1 X121.906 Y105.853 E17.91126
G1 X121.7 Y105.649 E17.92091
G1 X121.598 Y105.482 E17.92741
G1 X121.501 Y105.11 E17.9402
G1 X121.5 Y98.5 E18.16005
G1 X114.886 Y98.499 E18.38003
G1 X114.538 Y98.413 E18.39195
G1 X114.302 Y98.265 E18.40122
G1 X114.143 Y98.094 E18.40899
G1 X113.986 Y97.776 E18.42078
G1 X113.948 Y97.5 E18.43005
G1 X113.948 Y96 E18.47994
G1 X106.048 Y96 E18.74269
G1 X106.048 Y97.5 E18.79258
G1 X106.01 Y97.776 E18.80185
G1 X105.797 Y98.164 E18.81657
G1 X105.571 Y98.353 E18.82637
G1 X105.374 Y98.446 E18.83362
G1 X105.11 Y98.499 E18.84257
G1 X98.5 Y98.5 E19.06242
G1 X98.499 Y105.11 E19.28227
G1 X98.402 Y105.482 E19.29506
G1 X98.265 Y105.694 E19.30345
G1 X98.094 Y105.853 E19.31122
G1 X97.776 Y106.01 E19.32301
G1 X97.5 Y106.048 E19.33228
G1 X96 Y106.048 E19.38217
G1 X96 Y113.948 E19.64493
G1 X97.5 Y113.948 E19.69482
G1 X97.776 Y113.986 E19.70408
G1 X98.164 Y114.199 E19.7188
G1 X98.394 Y114.461 E19.7304
G1 X98.499 Y114.886 E19.74496
G1 X98.5 Y121.5 E19.96494
G1 X105.11 Y121.501 E20.18479
G1 X105.397 Y121.562 E20.19455
G1 X105.694 Y121.735 E20.20598
G1 X105.853 Y121.906 E20.21375
G1 X106.01 Y122.224 E20.22555
G1 X106.048 Y122.5 E20.23481
G1 X106.048 Y124 E20.2847
G1 X113.948 Y124 E20.54746
M204 S2000
G0 F7500 X114.348 Y124.4
M204 S500
G1 F1500 X114.348 Y122.381 E20.61461
G1 X114.465 Y122.143 E20.62343
G1 X114.715 Y121.946 E20.63402
G1 X114.878 Y121.903 E20.63962
G1 X121.9 Y121.9 E20.87318
G1 X121.903 Y114.878 E21.10673
G1 X122.041 Y114.56 E21.11826
G1 X122.143 Y114.465 E21.12289
G1 X122.381 Y114.348 E21.13172
G1 X124.4 Y114.348 E21.19887
G1 X124.4 Y105.648 E21.48823
G1 X122.376 Y105.648 E21.55555
G1 X122.102 Y105.498 E21.56594
G1 X121.967 Y105.325 E21.57324
G1 X121.901 Y105.086 E21.58148
G1 X121.9 Y98.1 E21.81384
G1 X114.879 Y98.097 E22.04736
G1 X114.671 Y98.033 E22.0546
G1 X114.465 Y97.857 E22.06361
G1 X114.348 Y97.619 E22.07243
G1 X114.348 Y95.6 E22.13958
G1 X105.648 Y95.6 E22.42894
G1 X105.648 Y97.619 E22.4961
G1 X105.531 Y97.857 E22.50492
G1 X105.436 Y97.959 E22.50955
G1 X105.118 Y98.097 E22.52108
G1 X98.1 Y98.1 E22.7545
G1 X98.097 Y105.118 E22.98792
G1 X97.998 Y105.384 E22.99736
G1 X97.857 Y105.531 E23.00414
G1 X97.619 Y105.648 E23.01296
G1 X95.6 Y105.648 E23.08011
G1 X95.6 Y114.348 E23.36947
G1 X97.619 Y114.348 E23.43663
G1 X97.857 Y114.465 E23.44545
G1 X98.054 Y114.715 E23.45603
G1 X98.097 Y114.878 E23.46164
G1 X98.1 Y121.9 E23.69519
G1 X105.182 Y121.901 E23.93074
G1 X105.436 Y122.041 E23.94039
G1 X105.531 Y122.143 E23.94502
G1 X105.648 Y122.381 E23.95384
G1 X105.648 Y124.4 E24.021
G1 X114.348 Y124.4 E24.31036
M204 S2000
G0 F7500 X114.748 Y124.8
M204 S500
;TYPE:WALL-OUTER
G1 F1500 X114.748 Y122.461 E24.38815
G1 X114.818 Y122.347 E24.3926
G1 X114.935 Y122.3 E24.3968
G1 X122.3 Y122.3 E24.64176
G1 X122.302 Y114.915 E24.88738
G1 X122.367 Y114.798 E24.89184
G1 X122.457 Y114.748 E24.89526
G1 X124.8 Y114.748 E24.97319
G1 X124.8 Y105.248 E25.28916
G1 X122.461 Y105.248 E25.36696
G1 X122.347 Y105.178 E25.37141
G1 X122.3 Y105.061 E25.3756
G1 X122.3 Y97.7 E25.62043
G1 X114.915 Y97.698 E25.86605
G1 X114.798 Y97.633 E25.8705
G1 X114.748 Y97.543 E25.87393
G1 X114.748 Y95.2 E25.95186
G1 X105.248 Y95.2 E26.26783
G1 X105.248 Y97.539 E26.34562
G1 X105.178 Y97.653 E26.35007
G1 X105.061 Y97.7 E26.35427
G1 X97.7 Y97.7 E26.5991
G1 X97.698 Y105.081 E26.84459
G1 X97.633 Y105.198 E26.84904
G1 X97.543 Y105.248 E26.85246
G1 X95.2 Y105.248 E26.93039
G1 X95.2 Y114.748 E27.24636
G1 X97.539 Y114.748 E27.32416
G1 X97.653 Y114.818 E27.32861
G1 X97.7 Y114.935 E27.3328
G1 X97.7 Y122.3 E27.57776
G1 X105.081 Y122.302 E27.82326
G1 X105.198 Y122.367 E27.82771
G1 X105.248 Y122.457 E27.83113
G1 X105.248 Y124.8 E27.90906
G1 X114.748 Y124.8 E28.22503
M204 S2000
G0 F7500 X114.48 Y124.53
G0 X113.848 Y123.64
G0 X113.588 Y123.64
M204 S500
;TYPE:SKIN
